X: 12920
T: Fiddle On The Wall, The
R: reel
M: 4/4
K: Aminor
"Am"e2 ce aece|"G"g^fge dBGB|"Am"AGAB (3cdc BA|"G"GABA GEDG|
"Am"E2 AE cEAE|"G"D2 GA BAGA|"Am"c2 AB "Am7"cBAG|"Em7"EDEG "Am"A4:|
"Am"eAcd eaa^f|"G"g2^fg edcB|"Am"c2 ec acec|"Em"B2 eB "G"gBeB|
"Am"eaa^g aba=g|"C"ec"G"dB "Am"cBAG|"Am7"AGAB c2 BA|"Em"GEDB, "Am"A,4:|

